svgs/sharp-light/chess-rook-piece.svg

<svg xmlns="http://www.w3.org/2000/svg" viewBox="0 0 320 512"><!--! Font Awesome Pro 6.6.0 by @fontawesome - https://fontawesome.com License - https://fontawesome.com/license (Commercial License) Copyright 2024 Fonticons, Inc. --><path d="M96 144l0-16-48 0 0 90.2 36.3 43.6 4.1 4.9-.4 6.3L83.3 352l-32.1 0 4.4-74.6L19.7 234.2 16 229.8l0-5.8 0-112 0-16 16 0 64 0 32 0 64 0 32 0 64 0 16 0 0 16 0 112 0 5.8-3.7 4.4-35.9 43.1 4.4 74.6-32.1 0L232 272.9l-.4-6.3 4.1-4.9L272 218.2l0-90.2-48 0 0 16 0 16-32 0 0-16 0-16-64 0 0 16 0 16-32 0 0-16zM32 480l256 0 0-16.7L255.2 416 64.8 416 32 463.3 32 480zM0 480l0-26.7L48 384l224 0 48 69.3 0 26.7 0 32-32 0L32 512 0 512l0-32zM176 224l0 32 0 16-32 0 0-16 0-32 0-16 32 0 0 16z"/></svg>

<svg xmlns="http://www.w3.org/2000/svg" viewBox="0 0 320 512"><!--! Font Awesome Pro 6.4.2 by @fontawesome - https://fontawesome.com License - https://fontawesome.com/license (Commercial License) Copyright 2023 Fonticons, Inc. --><path d="M96 144V128H48v90.2l36.3 43.6 4.1 4.9-.4 6.3L83.3 352H51.3l4.4-74.6L19.7 234.2 16 229.8V224 112 96H32 96h32 64 32 64 16v16V224v5.8l-3.7 4.4-35.9 43.1 4.4 74.6H236.7L232 272.9l-.4-6.3 4.1-4.9L272 218.2V128H224v16 16H192V144 128H128v16 16H96V144zM32 480H288V463.3L255.2 416H64.8L32 463.3V480zM0 480V453.3L48 384H272l48 69.3V480v32H288 32 0V480zM176 224v32 16H144V256 224 208h32v16z"/></svg>
